src/activities/drawletters/resource/bluepointHighlight.svg

<?xml version="1.0" encoding="UTF-8" standalone="no"?>
<svg
   xmlns:dc="http://purl.org/dc/elements/1.1/"
   xmlns:cc="http://creativecommons.org/ns#"
   xmlns:rdf="http://www.w3.org/1999/02/22-rdf-syntax-ns#"
   xmlns:svg="http://www.w3.org/2000/svg"
   xmlns="http://www.w3.org/2000/svg"
   xmlns:sodipodi="http://sodipodi.sourceforge.net/DTD/sodipodi-0.dtd"
   xmlns:inkscape="http://www.inkscape.org/namespaces/inkscape"
   id="svg4341"
   viewBox="0 0 18.137782 18.435295"
   version="1.1"
   inkscape:version="0.91 r13725"
   width="100%"
   height="100%"
   sodipodi:docname="bluepointHighlight.svg">
  <sodipodi:namedview
     pagecolor="#ffffff"
     bordercolor="#666666"
     borderopacity="1"
     objecttolerance="10"
     gridtolerance="10"
     guidetolerance="10"
     inkscape:pageopacity="0"
     inkscape:pageshadow="2"
     inkscape:window-width="1366"
     inkscape:window-height="748"
     id="namedview13"
     showgrid="false"
     fit-margin-top="0"
     fit-margin-left="0"
     fit-margin-right="0"
     fit-margin-bottom="0"
     inkscape:zoom="28.838516"
     inkscape:cx="10.926027"
     inkscape:cy="14.838991"
     inkscape:window-x="-2"
     inkscape:window-y="-3"
     inkscape:window-maximized="1"
     inkscape:current-layer="layer1-6"
     borderlayer="true" />
  <defs
     id="defs4343" />
  <g
     id="layer1"
     transform="translate(-126.09479,-661.46043)">
    <g
       id="layer1-6"
       transform="matrix(-0.84261,0.026204,0.026204,0.84261,119.57,-195.39)"
       style="opacity:1;display:inline">
      <path
         style="font-size:medium;font-style:normal;font-variant:normal;font-weight:normal;font-stretch:normal;text-indent:0;text-align:start;text-decoration:none;line-height:normal;letter-spacing:normal;word-spacing:normal;text-transform:none;direction:ltr;block-progression:tb;writing-mode:lr-tb;text-anchor:start;baseline-shift:baseline;color:#000000;fill:#12459a;fill-opacity:1;stroke:none;stroke-width:0.99997946000000004;marker:none;visibility:visible;display:inline;overflow:visible;enable-background:accumulate;font-family:Sans;-inkscape-font-specification:Sans;opacity:1;stroke-miterlimit:4;stroke-dasharray:none"
         d="m 12.428696,1016.5469 c -2.7897632,0.2758 -5.7173707,1.3328 -7.4524778,3.8055 -3.4133994,4.8645 -3.1031276,11.4508 1.5685275,15.2817 4.6716573,3.8309 12.0081943,3.8266 15.4062503,-1.5313 3.235714,-5.1019 3.140405,-11.5753 -1.53125,-15.4062 -2.335828,-1.9154 -5.201287,-2.4255 -7.99105,-2.1497 z m -0.479277,1.1001 c 2.533001,-0.2505 5.485832,0.5467 7.612712,2.2907 4.253761,3.4883 3.17009,11.1991 1.302288,13.3036 -3.65161,4.1144 -9.245577,4.7645 -13.4993361,1.2762 -3.5265103,-3.9223 -4.7965483,-8.9252 -1.3083156,-13.179 1.7441163,-2.1268 3.3596507,-3.441 5.8926517,-3.6915 z"
         id="path3769-2-9"
         inkscape:connector-curvature="0"
         sodipodi:nodetypes="ssssssscsccs" />
      <path
         sodipodi:type="arc"
         style="fill:#327cf4;fill-opacity:1;fill-rule:nonzero;stroke:#12459a;stroke-width:0.86922668999999986;stroke-miterlimit:4;stroke-opacity:1;stroke-dasharray:none"
         id="path5116"
         sodipodi:cx="8.7036381"
         sodipodi:cy="8.7607336"
         sodipodi:rx="8.6342859"
         sodipodi:ry="8.6342859"
         d="M 17.337924,8.7607336 A 8.6342859,8.6342859 0 0 1 8.7036381,17.39502 8.6342859,8.6342859 0 0 1 0.06935215,8.7607336 8.6342859,8.6342859 0 0 1 8.7036381,0.12644768 8.6342859,8.6342859 0 0 1 17.337924,8.7607336 Z"
         transform="matrix(-1.161834,0.03613142,0.03539102,1.138026,23.470545,1016.9995)" />
      <g
         id="g22156"
         transform="matrix(-0.27012678,0.00840057,0.00988231,0.31777338,23.752636,1021.9672)">
        <path
           inkscape:connector-curvature="0"
           id="path21267"
           d="M 20.980236,5.9570105 9.9380067,-2.3246617 4.4168919,-5.0852191 l 4.0488175,-5.7051519 7.7295606,-4.232855 8.46571,9.017821 4.600929,4.2328548 8.281672,-6.6253378 2.024409,2.2084459 0.552111,3.4967061 -2.392483,16.011233 -18.403716,1.472297 -4.048818,-2.57652 1.288261,-2.7605574 4.416891,-3.4967061 z"
           style="fill:#feff00;fill-opacity:1;fill-rule:evenodd;stroke:#000000;stroke-width:1.75713955999999993px;stroke-linecap:butt;stroke-linejoin:miter;stroke-opacity:1" />
        <path
           inkscape:connector-curvature="0"
           sodipodi:nodetypes="ccccccccccscccccccccccccccc"
           id="path20377"
           d="M 17.486149,-17.96875 7.734375,-12.357686 -0.54510135,-4.90625 9.5782095,0.06942568 17.125,5.78125 11.40625,11.46875 16.75,17 39.1875,15.34375 42.875,-6 38.65625,-11.15625 c 0,0 -7.177028,6.2396113 -8.833361,6.2396115 -1.656335,0 -12.336739,-13.0521115 -12.33674,-13.0521115 z m -1.298649,5.875 8.843666,10.3195101 4.607685,2.40278719 6.423649,-5.72229729 1.84375,-0.71875 0.9375,2.75 L 38.083361,0.26047297 35.902703,11.670186 26.5,12.78125 19.125,13.125 17.65625,12.03125 23.9375,7.8125 22.09375,2.84375 7.53125,-5.8125 16.1875,-12.09375 z"
           style="fill:#f1d500;fill-opacity:1;fill-rule:evenodd;stroke:none" />
      </g>
    </g>
  </g>
  <metadata
     id="metadata11">
    <rdf:RDF>
      <cc:Work>
        <dc:format>image/svg+xml</dc:format>
        <dc:type
           rdf:resource="http://purl.org/dc/dcmitype/StillImage" />
        <cc:license
           rdf:resource="http://creativecommons.org/licenses/publicdomain/" />
        <dc:publisher>
          <cc:Agent
             rdf:about="http://openclipart.org/">
            <dc:title>Openclipart</dc:title>
          </cc:Agent>
        </dc:publisher>
        <dc:title />
        <dc:date>2012-03-23T13:52:34</dc:date>
        <dc:description>Map, Marker, Pin, Pushpin, clip art, clipart, green, </dc:description>
        <dc:source>http://openclipart.org/detail/169048/green-map-marker-by-mightyman</dc:source>
        <dc:creator>
          <cc:Agent>
            <dc:title>mightyman</dc:title>
          </cc:Agent>
        </dc:creator>
        <dc:subject>
          <rdf:Bag>
            <rdf:li>Map</rdf:li>
            <rdf:li>Marker</rdf:li>
            <rdf:li>Pin</rdf:li>
            <rdf:li>Pushpin</rdf:li>
            <rdf:li>clip art</rdf:li>
            <rdf:li>clipart</rdf:li>
            <rdf:li>green</rdf:li>
          </rdf:Bag>
        </dc:subject>
      </cc:Work>
      <cc:License
         rdf:about="http://creativecommons.org/licenses/publicdomain/">
        <cc:permits
           rdf:resource="http://creativecommons.org/ns#Reproduction" />
        <cc:permits
           rdf:resource="http://creativecommons.org/ns#Distribution" />
        <cc:permits
           rdf:resource="http://creativecommons.org/ns#DerivativeWorks" />
      </cc:License>
    </rdf:RDF>
  </metadata>
</svg>

<svg xmlns:dc="http://purl.org/dc/elements/1.1/" xmlns:cc="http://creativecommons.org/ns#" xmlns:rdf="http://www.w3.org/1999/02/22-rdf-syntax-ns#" xmlns="http://www.w3.org/2000/svg" xmlns:sodipodi="http://sodipodi.sourceforge.net/DTD/sodipodi-0.dtd" xmlns:inkscape="http://www.inkscape.org/namespaces/inkscape" viewBox="0 0 18.137782 18.435295" inkscape:version="0.91 r13725" sodipodi:docname="bluepointHighlight.svg"><sodipodi:namedview pagecolor="#ffffff" bordercolor="#666666" borderopacity="1" objecttolerance="10" gridtolerance="10" guidetolerance="10" inkscape:pageopacity="0" inkscape:pageshadow="2" inkscape:window-width="1366" inkscape:window-height="748" showgrid="false" fit-margin-top="0" fit-margin-left="0" fit-margin-right="0" fit-margin-bottom="0" inkscape:zoom="28.838516" inkscape:cx="10.926027" inkscape:cy="14.838991" inkscape:window-x="-2" inkscape:window-y="-3" inkscape:window-maximized="1" inkscape:current-layer="layer1-6" borderlayer="true"/><g style="opacity:1;display:inline"><path style="font-size:medium;font-style:normal;font-variant:normal;font-weight:400;font-stretch:normal;text-indent:0;text-align:start;text-decoration:none;line-height:normal;letter-spacing:normal;word-spacing:normal;text-transform:none;direction:ltr;block-progression:tb;writing-mode:lr-tb;text-anchor:start;baseline-shift:baseline;color:#000;fill:#12459a;fill-opacity:1;stroke:none;stroke-width:.99997946000000004;marker:none;visibility:visible;display:inline;overflow:visible;enable-background:accumulate;font-family:Sans;-inkscape-font-specification:Sans;opacity:1;stroke-miterlimit:4;stroke-dasharray:none" d="M12.429 1016.547c-2.79.276-5.718 1.333-7.453 3.805-3.413 4.865-3.103 11.451 1.569 15.282 4.671 3.831 12.008 3.827 15.406-1.531 3.236-5.102 3.14-11.575-1.531-15.406-2.336-1.916-5.202-2.426-7.991-2.15zm-.48 1.1c2.533-.25 5.486.547 7.613 2.29 4.254 3.489 3.17 11.2 1.302 13.304-3.651 4.115-9.245 4.765-13.499 1.277-3.526-3.923-4.796-8.926-1.308-13.18 1.744-2.126 3.36-3.44 5.892-3.691z" inkscape:connector-curvature="0" sodipodi:nodetypes="ssssssscsccs" transform="matrix(-.84261 .0262 .0262 .84261 -6.525 -856.85)"/><path sodipodi:type="arc" style="fill:#327cf4;fill-opacity:1;fill-rule:nonzero;stroke:#12459a;stroke-width:.86922668999999986;stroke-miterlimit:4;stroke-opacity:1;stroke-dasharray:none" sodipodi:cx="8.7036381" sodipodi:cy="8.7607336" sodipodi:rx="8.6342859" sodipodi:ry="8.6342859" d="M17.338 8.76a8.634 8.634 0 0 1-8.634 8.635A8.634 8.634 0 0 1 .069 8.761 8.634 8.634 0 0 1 8.704.126a8.634 8.634 0 0 1 8.634 8.635z" transform="matrix(.97992 0 0 .95984 .348 .699)"/><path inkscape:connector-curvature="0" d="M20.98 5.957 9.938-2.325l-5.521-2.76 4.049-5.705 7.73-4.233 8.465 9.018 4.6 4.232 8.283-6.625 2.024 2.209.552 3.496-2.392 16.011-18.404 1.473-4.049-2.577 1.288-2.76 4.417-3.497z" style="fill:#feff00;fill-opacity:1;fill-rule:evenodd;stroke:#000;stroke-width:1.75713955999999993px;stroke-linecap:butt;stroke-linejoin:miter;stroke-opacity:1" transform="matrix(.22783 0 0 .26802 .24 4.892)"/><path inkscape:connector-curvature="0" sodipodi:nodetypes="ccccccccccscccccccccccccccc" d="m17.486-17.969-9.752 5.611-8.28 7.452L9.579.069l7.547 5.712-5.719 5.688L16.75 17l22.438-1.656L42.874-6l-4.219-5.156s-7.177 6.24-8.833 6.24c-1.656 0-12.337-13.053-12.337-13.053zm-1.298 5.875 8.843 10.32L29.64.629l6.423-5.723 1.844-.718.938 2.75-.76 3.322-2.181 11.41-9.403 1.111-7.375.344-1.469-1.094 6.282-4.219-1.844-4.968L7.53-5.812l8.657-6.282z" style="fill:#f1d500;fill-opacity:1;fill-rule:evenodd;stroke:none" transform="matrix(.22783 0 0 .26802 .24 4.892)"/></g><metadata><rdf:RDF><cc:Work><dc:format>image/svg+xml</dc:format><dc:type rdf:resource="http://purl.org/dc/dcmitype/StillImage"/><cc:license rdf:resource="http://creativecommons.org/licenses/publicdomain/"/><dc:publisher><cc:Agent rdf:about="http://openclipart.org/"><dc:title>Openclipart</dc:title></cc:Agent></dc:publisher><dc:title/><dc:date>2012-03-23T13:52:34</dc:date><dc:description>Map, Marker, Pin, Pushpin, clip art, clipart, green,</dc:description><dc:source>http://openclipart.org/detail/169048/green-map-marker-by-mightyman</dc:source><dc:creator><cc:Agent><dc:title>mightyman</dc:title></cc:Agent></dc:creator><dc:subject><rdf:Bag><rdf:li>Map</rdf:li><rdf:li>Marker</rdf:li><rdf:li>Pin</rdf:li><rdf:li>Pushpin</rdf:li><rdf:li>clip art</rdf:li><rdf:li>clipart</rdf:li><rdf:li>green</rdf:li></rdf:Bag></dc:subject></cc:Work><cc:License rdf:about="http://creativecommons.org/licenses/publicdomain/"><cc:permits rdf:resource="http://creativecommons.org/ns#Reproduction"/><cc:permits rdf:resource="http://creativecommons.org/ns#Distribution"/><cc:permits rdf:resource="http://creativecommons.org/ns#DerivativeWorks"/></cc:License></rdf:RDF></metadata></svg>
